X: 1
T: Up South
C: Scott Leach, 2008
R: reel
Z: 2014 John Chambers <jc:trillian.mit.edu>
S: printed copy from Debby Knight at RJ practice
M: C|
L: 1/8
K: G
DC |:\
"G"B,DGF GDB,D | "C"CEGF GDCD | "G"B,DGF GABG | "D7"cBGB AGEG |
"G"B,DGF GDB,D | "C"CEGF GABG | "G"cBGB "C"AGEG | "D7"DEGB "G"AGG2 ::\
"G"Bdgf gedB |
"C"ceag "D7"a2ga | "G"bgaf "C"gedB |\
[1,3 "D7"cABG AGEG :|2 "D7"cdef "G"g2Bc :|4 "D7"cAFD "G"G2 |]
